Sources/FrostedUI/Resources/Icons.xcassets/sparkleRectangle20.imageset/sparkle-rectangle-20.svg

<svg width="20" height="20" viewBox="0 0 20 20" fill="none" xmlns="http://www.w3.org/2000/svg" data-fui-icon="true">
  <path
    d="M8 3C8.41421 3 8.75 3.33579 8.75 3.75C8.75 4.16421 8.41421 4.5 8 4.5H3.86035C3.10924 4.5 2.5 5.10924 2.5 5.86035V16.1396C2.5 16.8908 3.10924 17.5 3.86035 17.5H14.1396C14.8908 17.5 15.5 16.8908 15.5 16.1396V12C15.5 11.5858 15.8358 11.25 16.25 11.25C16.6642 11.25 17 11.5858 17 12V16.1396C17 17.7192 15.7192 19 14.1396 19H3.86035C2.28082 19 1 17.7192 1 16.1396V5.86035C1 4.28082 2.28082 3 3.86035 3H8ZM14.5 1C14.9142 1 15.25 1.33579 15.25 1.75C15.25 2.38935 15.6117 3.14683 16.2324 3.76758C16.8532 4.38833 17.6106 4.75 18.25 4.75C18.6642 4.75 19 5.08579 19 5.5C19 5.91421 18.6642 6.25 18.25 6.25C17.6655 6.25 16.9144 6.67904 16.2539 7.39746C15.9391 7.73994 15.6788 8.11306 15.501 8.45996C15.3164 8.82005 15.25 9.0937 15.25 9.25C15.25 9.66421 14.9142 10 14.5 10C14.0858 10 13.75 9.66421 13.75 9.25C13.75 9.13225 13.6812 8.87908 13.4551 8.50684C13.2417 8.15564 12.9343 7.77417 12.5801 7.41992C12.2258 7.06567 11.8444 6.75826 11.4932 6.54492C11.1209 6.31883 10.8678 6.25 10.75 6.25C10.3358 6.25 10 5.91421 10 5.5C10 5.08579 10.3358 4.75 10.75 4.75C10.9063 4.75 11.1799 4.68361 11.54 4.49902C11.8869 4.3212 12.2601 4.06093 12.6025 3.74609C13.321 3.08556 13.75 2.33445 13.75 1.75C13.75 1.33579 14.0858 1 14.5 1ZM14.4453 3.92676C14.1952 4.27033 13.9093 4.58294 13.6182 4.85059C13.3303 5.11526 13.018 5.35112 12.7021 5.55371C13.0282 5.79162 13.3478 6.06657 13.6406 6.35938C13.9331 6.65185 14.2076 6.97126 14.4453 7.29688C14.6479 6.98115 14.8848 6.66966 15.1494 6.38184C15.417 6.09078 15.7288 5.80383 16.0723 5.55371C15.7445 5.34305 15.4405 5.09674 15.1719 4.82812C14.903 4.5592 14.6561 4.25501 14.4453 3.92676Z"
    fill="currentColor"
  />
</svg>

<svg xmlns="http://www.w3.org/2000/svg" width="20" height="20" fill="none" data-fui-icon="true" viewBox="0 0 20 20"><path fill="currentColor" d="M8 3a.75.75 0 0 1 0 1.5H3.86c-.75 0-1.36.61-1.36 1.36v10.28c0 .75.61 1.36 1.36 1.36h10.28c.75 0 1.36-.61 1.36-1.36V12a.75.75 0 0 1 1.5 0v4.14A2.86 2.86 0 0 1 14.14 19H3.86A2.86 2.86 0 0 1 1 16.14V5.86A2.86 2.86 0 0 1 3.86 3zm6.5-2a.75.75 0 0 1 .75.75c0 .64.362 1.397.982 2.018.621.62 1.379.982 2.018.982a.75.75 0 0 1 0 1.5c-.584 0-1.336.429-1.996 1.147A5 5 0 0 0 15.5 8.46c-.185.36-.251.634-.251.79a.75.75 0 0 1-1.5 0c0-.118-.069-.37-.295-.743a6 6 0 0 0-.875-1.087 6 6 0 0 0-1.087-.875c-.372-.226-.625-.295-.743-.295a.75.75 0 0 1 0-1.5c.156 0 .43-.066.79-.251.347-.178.72-.438 1.063-.753.718-.66 1.147-1.412 1.147-1.996A.75.75 0 0 1 14.5 1m-.055 2.927c-.25.343-.536.656-.827.924-.288.264-.6.5-.916.703a8 8 0 0 1 1.743 1.743c.203-.316.44-.627.704-.915.268-.291.58-.578.923-.828a5.4 5.4 0 0 1-1.627-1.627"/></svg>
